X: 3
M:9/8
L:1/8
K:D
|:AcA GBG F3|AcA GBG AFD|AcA GBG F3|EFE cBA GEC:|
|;D2 a ged c3|d2 e f2 a gec|faf ged c3|cAG FAF GEC:|
|:DED dAG F3|DED dAF GEC|DED dAG F3|EFE cBA GEC:||

